!!!!SEGMENT: pl-kk--kk-i-1--012-002_borek-krzysztof--missa-et-in-terra.krn
!!!cenid: 15xx:693
!!!COM: Borek, Krzysztof
!!!COM-rismid: pe30020454
!!!CDT:
!!!CNT:
!!!OPR: [Missa]
!!!OTL: Et in terra
!!!OMV: 002
!!!PDT:
!!!AGN: Sacred; Mass
!!!SMS-siglum: PL-Kk
!!!SMS-shelfmark: Kk.I.1
!!!SMS-shelfwork: 012-002 M
!!!SMS-variant: Cantus 0071-0077
!!!SMS-altvar: Cantus 0067-0071
!!!NIFC-rismid: 300257966
!!!URL-scan: http://repozytorium.nifc.pl/skany/pl-kk-nut--i-1
!!!ONB-nifc: UWAGA: Cantus (s. 65r-68v oraz 69r-75r, skan 0067-0071 oraz 0071-0077, Altus (s. 66r-72v, skan 0258-0265), Tenor (s. 64r-70v, skan 0453-0460), Bassus (s. 64r-70r, skan 0625-0631). Części Mszy: 1. Kyrie, 2. Et in terra, 3. Patrem, 4. Sanctus
!!!key: d:dor
**kern	**text	**kern	**text	**kern	**text	**kern	**text	**kern
*part5	*part5	*part4	*part4	*part3	*part3	*part2	*part2	*part1
*staff5	*staff5	*staff4	*staff4	*staff3	*staff3	*staff2	*staff2	*staff1
*I"BASSVS	*	*I"TENOR	*	*I"ALTVS	*	*I"CANTVS	*	*I"[QVINTVS]
*I'B	*	*I'T	*	*I'A	*	*I'S	*	*I'[5]
*ICvox	*	*ICvox	*	*ICvox	*	*ICvox	*	*ICvox
*Ibass	*	*Itenor	*	*Ialto	*	*Isoprn	*	*Ivox
*clefF4	*	*clefC4	*	*clefC4	*	*clefC3	*	*clefC3
*d:dor	*	*d:dor	*	*d:dor	*	*d:dor	*	*d:dor
*k[]	*	*k[]	*	*k[]	*	*k[]	*	*k[]
*M2/1	*	*M2/1	*	*M2/1	*	*M2/1	*	*yyM2/1
*met(c|)	*	*met(c|)	*	*met(c|)	*	*met(c|)	*	*yymet(c|)
=1	=1	=1	=1	=1	=1	=1	=1	=1
!	!	!	!	!	!	!	!	!LO:TX:t=P:problem=w A,T i B jest adnotacja "5 vocum". Głosu piątego nie ma w rękopisie, nikt go też nie znalazł gdzie indziej. Jedni mówią, że był, inni, że nie, inni, że w jedne mszy Borka raczej mógł być, a w drugiej raczej nie. Może w to nie będę wnikał - robię pustą pięciolinię zgodnie z inskrypcją na karcie z nutami, jak prosiła Emilka. 
!	!	!	!	!	!	!LO:TX:t=P:problem= klucz altowy dla S	!	!
1AA	t	0r	.	0r	.	0r	.	0ryy
2D/	in	.	.	.	.	.	.	.
1D	ter-	.	.	.	.	.	.	.
=2	=2	=2	=2	=2	=2	=2	=2	=2
.	.	0r	.	1r	.	0r	.	0ryy
2C/	-ra	.	.	.	.	.	.	.
2.D/	pax	.	.	1A	Et	.	.	.
4AA/	ho-	.	.	.	.	.	.	.
=3	=3	=3	=3	=3	=3	=3	=3	=3
2BB/	-mi-	1D	t	2d\	in	0r	.	0ryy
2BB/	-ni-	.	.	1d	ter-	.	.	.
2AA/	-bus	2A\	in	.	.	.	.	.
2AA/	ho-	1A	ter-	2c\	-ra	.	.	.
=4	=4	=4	=4	=4	=4	=4	=4	=4
2BB/	-mi-	.	.	1d	pax	1r	.	0ryy
2BB/	-ni-	2G/	-ra	.	.	.	.	.
1AA	-bus	1A	pax	1c	ho-	1A	Et	.
=5	=5	=5	=5	=5	=5	=5	=5	=5
2r	.	1D	ho-	2B\	-mi-	2d\	in	0ryy
*custos:AA	*	*	*	*	*	*	*	*
2GG/	pax	.	.	2B\	-ni-	1d	ter-	.
!LO:LB:g=original	!	!	!	!	!	!	!	!
1AA	ho-	2F/	-(mi-	2A/	-bus	.	.	.
.	.	2E/	-n)i-	1A	bo-	2c/	-ra	.
=6	=6	=6	=6	=6	=6	=6	=6	=6
2BB/	-mi-	1D	-bus	.	.	1.d	pax	0ryy
2BB/	-ni-	.	.	2G/	-ne	.	.	.
1AA	-bus	2r	.	1A	vo-	.	.	.
.	.	1A	bo-	.	.	2A/	ho-	.
=7	=7	=7	=7	=7	=7	=7	=7	=7
1r	.	.	.	1E	-lun-	2c/	-mi-	0ryy
.	.	2G/	-ne	.	.	2B/	-ni-	.
*	*	*	*	*custos:E	*	*	*	*
2r	.	1A	vo-	1F	-ta-	2A/	-bus	.
1D	bo-	.	.	.	.	1A	bo-	.
!	!	!	!	!LO:LB:g=original	!	!	!	!
=8	=8	=8	=8	=8	=8	=8	=8	=8
*	*	*custos:F	*	*	*	*	*	*
.	.	1E	.	2E/	-tis	.	.	0ryy
*	*	*	*	*	*	*custos:A	*	*
!	!	!LO:LB:g=original	!	!	!	!	!	!
2C/	-ne	.	.	2e\	.	2A/	-ne	.
2.D/	vo-	2F/	.	2.d\	.	2A/	vo-	.
.	.	1A	-unt-	.	.	2A/	-lun-	.
4AA/	-lun-	.	.	4c\	.	.	.	.
!	!	!	!	!	!	!LO:LB:g=original	!	!
=9	=9	=9	=9	=9	=9	=9	=9	=9
1BB	-ta-	.	.	1B	.	1d	-ta-	0ryy
.	.	2G/	-ta-	.	.	.	.	.
2AA/	-tis	2A/	-t(is)	2r	.	1c	-tis	.
2AA/	lau-	2E/	lau-	2c\	Lau-	.	.	.
=10	=10	=10	=10	=10	=10	=10	=10	=10
2D\	-da-	2F/	-da-	2A/	-da-	1r	.	0ryy
2BB/	-(mus)	2G/	-(mus)	2d\	-mus	.	.	.
1AA	te	1A	te	2c\	te	2r	.	.
.	.	.	.	2c\	be-	2e\	be-	.
=11	=11	=11	=11	=11	=11	=11	=11	=11
1r	.	1r	.	2d\	-ne-	2f\	-ne-	0ryy
.	.	.	.	2c\	-di-	2e\	-di-	.
2r	.	2r	.	2B\	-ci-	2d\	-ci-	.
2D\	a-	2F/	a-	2A/	-mus	2f\	-mus	.
=12	=12	=12	=12	=12	=12	=12	=12	=12
1C	-do-	1G	-do-	1c	te.	1e	te	0ryy
1D	-ra-	1F	-ra-	1r	.	1r	.	.
=13	=13	=13	=13	=13	=13	=13	=13	=13
*custos:D	*	*	*	*	*	*	*	*
1E	-mus	1G	-mus	2r	.	2r	.	0ryy
.	.	.	.	2c\	glo-	2e\	glo-	.
!LO:LB:g=original	!	!	!	!	!	!	!	!
1D	te	1.A	te	2.d\	-ri-	1.f	-ri-	.
*	*	*	*	*custos:d	*	*	*	*
.	.	.	.	4d\	-fi-	.	.	.
!	!	!	!	!LO:LB:g=original	!	!	!	!
=14	=14	=14	=14	=14	=14	=14	=14	=14
2r	.	.	.	2d\	-ca-	.	.	0ryy
2AA/	glo-	2A/	glo-	4c\	.	2e\	-fi-	.
.	.	.	.	4B\	-mus	.	.	.
1D	-ri-	2F/	-ri-	4A\	.	1d	-ca-	.
.	.	.	.	4G/	.	.	.	.
.	.	2D/	-fi-	2F/	te.	.	.	.
=15	=15	=15	=15	=15	=15	=15	=15	=15
1AA	-fi-	2.A\	-ca-	2E/	.	2c/	-mus	0ryy
.	.	.	.	1A	.	2.e\	.	.
*	*	*custos:F	*	*	*	*	*	*
.	.	4G/	.	.	.	.	.	.
!	!	!LO:LB:g=original	!	!	!	!	!	!
1D	-ca-	2F/	.	.	.	.	.	.
.	.	.	.	.	.	4d/	te	.
.	.	2D/	-mus	2A/	.	1d	.	.
=16	=16	=16	=16	=16	=16	=16	=16	=16
1AA	-mus-	1E	te	1A	.	.	.	0ryy
.	.	.	.	.	.	2c/	.	.
*	*	*	*	*	*	*custos:d	*	*
1Dl	-te	1Dl	.	1Al	.	1dl	.	.
!	!	!	!	!	!	!LO:LB:g=original	!	!
=17||	=17||	=17||	=17||	=17||	=17||	=17||	=17||	=17||
2.D/	Gra-	2.D/	Gra-	2.A\	Gra-	2.d\	Gra-	0ryy
4D/	-ti-	4D/	-ti-	4A\	-ti-	4d\	-ti-	.
2AA/	-as	2A/	-as	2c\	-as	2e\	-as	.
1D	a-	1A	a -	1d	a -	1f	a-	.
=18	=18	=18	=18	=18	=18	=18	=18	=18
.	.	.	.	.	.	.	.	0ryy
2E\	-gi-	2G/	-gi-	2B\	-gi-	2e\	-gi-	.
2C/	-mus	2A/	-mus	2c\	-mus	2e\	-mus	.
2.D/	ti-	2A/	ti-	1F	ti-	2.f\	ti-	.
=19	=19	=19	=19	=19	=19	=19	=19	=19
.	.	1D	-bi	.	.	.	.	0ryy
4C/	.	.	.	.	.	4e\	-bi	.
*	*	*	*	*custos:A	*	*	*	*
2BB/	.	.	.	2G/	-bi	2d\	.	.
!	!	!	!	!LO:LB:g=original	!	!	!	!
2AA/	-bi	2r	.	2A/	pro-	2c/	prop-	.
*custos:F	*	*	*	*	*	*	*	*
2D\	pro-	2d\	prop-	2A/	-pter	2f\	-pt(e)r	.
!LO:LB:g=original	!	!	!	!	!	!	!	!
=20	=20	=20	=20	=20	=20	=20	=20	=20
2F\	-pter	2c\	.	2A/	ma-	2f\	.	0ryy
2G\	ma-	2B\	-t(er)	2G/	.	2d\	ma-	.
1.D	-gna(m)	1.A	ma-	1.d	-gnam	1.f	-g(na)m	.
=21	=21	=21	=21	=21	=21	=21	=21	=21
.	.	.	.	.	.	.	.	0ryy
*	*	*custos:G	*	*	*	*	*	*
2D/	glo-	2F/	-gna(m).	2A/	.	2d\	glo-	.
!	!	!LO:LB:g=original	!	!	!	!	!	!
2C/	-ri-	2G/	.	2c\	glo-	2e\	-ri-	.
2F\	-a(m)	1A	glo-	1c	-ri-	2.f\	-am	.
=22	=22	=22	=22	=22	=22	=22	=22	=22
2FF/	.	.	.	.	.	.	.	0ryy
.	.	.	.	.	.	4e\	tu-	.
2GG/	tu-	4G/	-ri-	2B\	-am	1d	.	.
.	.	4F/	.	.	.	.	.	.
1AA	-am	2E/	-am	1A	tu-	.	.	.
*	*	*	*	*	*	*custos:d	*	*
.	.	2E/	tu-	.	.	2c\	.	.
!	!	!	!	!	!	!LO:LB:g=original	!	!
=23	=23	=23	=23	=23	=23	=23	=23	=23
2D\	glo-	1D	-a(m)	1F	-am.	2d\	-am	0ryy
2A\	.	.	.	.	.	2f\	glo-	.
2G\	-ri-	2r	.	1r	.	2e\	-ri-	.
2F\	-am	2D/	Do-	.	.	2d\	-am	.
=24	=24	=24	=24	=24	=24	=24	=24	=24
2E\	.	2E/	-mi-	2r	.	2c/	tu-	0ryy
4D\	.	2F/	-ne	2A\	Do-	2d\	-a(m)	.
4F\	.	.	.	.	.	.	.	.
1E	tu-	1G	De-	2B\	-mi-	1r	.	.
.	.	.	.	2c\	-ne	.	.	.
=25	=25	=25	=25	=25	=25	=25	=25	=25
1D	-a(m)	2F/	.	1d	De-	2r	.	0ryy
.	.	2.A/	-us	.	.	2d\	Do-	.
2r	.	.	.	2c\	-us	2e\	-mi-	.
.	.	4G/	.	.	.	.	.	.
*custos:E	*	*	*	*	*	*	*	*
2D\	DO-	2F/	.	2A/	rex	2f\	-ne	.
!LO:LB:g=original	!	!	!	!	!	!	!	!
=26	=26	=26	=26	=26	=26	=26	=26	=26
1E	-mi-	1E	.	2B\	c(ae)-	1g	De-	0ryy
*	*	*	*	*custos:d	*	*	*	*
.	.	.	.	2c\	-le-	.	.	.
2F\	-ne	2D/	.	2d\	-stis	2f\	-us	.
2G\	De-	2d\	Rex	2B\	.	2d\	rex	.
=27	=27	=27	=27	=27	=27	=27	=27	=27
2E\	-us	2c\	.	2G/	.	2e\	c(ae)-	0ryy
1D	Rex	2.d\	c(ae)-	1A	.	2f\	-leſ-	.
.	.	.	.	.	.	1d	-t(is)	.
.	.	4c\	.	.	.	.	.	.
*	*	*custos:A	*	*	*	*	*	*
2G\	c(ae)-	2B\	-le-	2B\	.	.	.	.
!	!	!LO:LB:g=original	!	!	!	!	!	!
=28	=28	=28	=28	=28	=28	=28	=28	=28
4F\	-leſ-	1A	-ſtis	2c\	.	2r	.	0ryy
4E\	.	.	.	.	.	.	.	.
4D\	-tis	.	.	1d	.	2f\	De-	.
4C/	.	.	.	.	.	.	.	.
1D	.	2r	.	.	.	1f	-us	.
.	.	2d\	De-	1A	.	.	.	.
=29	=29	=29	=29	=29	=29	=29	=29	=29
1AA	.	1c	-us	.	.	1e	Pa-	0ryy
.	.	.	.	2D/	.	.	.	.
*	*	*	*	*	*	*custos:f	*	*
2r	.	2B\	p(a-	2G/	De-	1d	-ter	.
2D/	De-	2.A/	-te)r	2F/	-vs	.	.	.
!	!	!	!	!	!	!LO:LB:g=original	!	!
=30	=30	=30	=30	=30	=30	=30	=30	=30
*	*	*	*	*	*	*lig	*	*
2D/	-us	.	.	4D/	pa-	0f	om-	0ryy
.	.	4G/	.	4E/	-ter	.	.	.
2D/	P(a-	4F/	.	4F/	.	.	.	.
.	.	4E/	.	4G/	.	.	.	.
1F	-te)r	1D	om	2A/	De-	.	.	.
.	.	.	.	2A/	-us	.	.	.
=31	=31	=31	=31	=31	=31	=31	=31	=31
2.C/	om-	0G	ni-	2c\	pa-	0e	-ni-	0ryy
.	.	.	.	2c\	-ter	.	.	.
4D/	-ni-	.	.	.	.	.	.	.
2E/	.	.	.	2B\	om-	.	.	.
2C/	-po-	.	.	2c\	-ni-	.	.	.
*custos:D	*	*	*	*custos:A	*	*	*	*
*	*	*	*	*	*	*Xlig	*	*
!LO:LB:g=original	!	!	!	!LO:LB:g=original	!	!	!	!
=32	=32	=32	=32	=32	=32	=32	=32	=32
1.D	.	1.F	-po-	1.A	.	1.d	-po-	0ryy
2D/	.	2F/	-tens	2A/	-po-	2d\	-tens	.
=33	=33	=33	=33	=33	=33	=33	=33	=33
0AAl	-tens.	0El	.	0Al	-tens	0cl	.	0ryy
=34||	=34||	=34||	=34||	=34||	=34||	=34||	=34||	=34||
0r	.	1.A	Do-	0r	.	1r	.	0ryy
.	.	.	.	.	.	2r	.	.
.	.	2G/	-(m)i-	.	.	1d	Do-	.
=35	=35	=35	=35	=35	=35	=35	=35	=35
1r	.	2A/	-(n)e	0r	.	.	.	0ryy
*	*	*custos:D	*	*	*	*	*	*
.	.	2A/	fi-	.	.	2c/	-mi-	.
!	!	!LO:LB:g=original	!	!	!	!	!	!
2r	.	1D	-li	.	.	2d\	-ne	.
1D	Do-	.	.	.	.	2d\	fi-	.
=36	=36	=36	=36	=36	=36	=36	=36	=36
.	.	2r	.	1r	.	2A/	-li	0ryy
*	*	*	*	*	*	*	*ij	*
2C/	-mi-	1G	v-	.	.	2e\	do-	.
2D/	-ne	.	.	2r	.	2d\	-mi-	.
2D/	fi-	2F/	-ni-	1d	Do-	2d\	-ne	.
=37	=37	=37	=37	=37	=37	=37	=37	=37
1AA	-li	2E/	-ge-	.	.	1e	fi-	0ryy
.	.	2E/	-ni-	2c\	-mi-	.	.	.
*	*	*	*	*	*	*custos:g	*	*
2.F\	v-	4D/	-te	2d\	-ne	0f	-li	.
.	.	4E/	.	.	.	.	.	.
*	*	*	*	*	*	*	*Xij	*
.	.	4F/	.	2d\	fi-	.	.	.
4E\	-ni-	4G/	.	.	.	.	.	.
!	!	!	!	!	!	!LO:LB:g=original	!	!
=38	=38	=38	=38	=38	=38	=38	=38	=38
2D/	-ge-	4A/	.	2A/	-li	.	.	0ryy
.	.	4G/	.	.	.	.	.	.
2D/	-ni-	4A/	.	1f	v-	.	.	.
.	.	4B/	.	.	.	.	.	.
*custos:D	*	*	*	*	*	*	*	*
1C	-te	1c	.	.	.	2r	.	.
.	.	.	.	2e\	-ni-	1g	v-	.
!LO:LB:g=original	!	!	!	!	!	!	!	!
=39	=39	=39	=39	=39	=39	=39	=39	=39
*	*ij	*	*	*	*	*	*	*
2.D/	v-	2.A/	v-	2d\	-ge-	.	.	0ryy
.	.	.	.	1d	-ni-	2f\	-ni-	.
4D/	-ni-	4A/	-ni-	.	.	.	.	.
2AA/	-ge-	2A/	-ge-	.	.	2e\	-ge-	.
2AA/	-ni-	2A/	-ni-	4c\	-te	2e\	-ni-	.
.	.	.	.	4B\	.	.	.	.
=40	=40	=40	=40	=40	=40	=40	=40	=40
1D	-te	1F	-te	1A	.	1d	-te	0ryy
*	*	*	*	*custos:c	*	*	*	*
*	*Xij	*	*	*	*	*	*	*
1D	Je-	1F	Je-	1A	.	1d	Je-	.
!	!	!	!	!LO:LB:g=original	!	!	!	!
=41	=41	=41	=41	=41	=41	=41	=41	=41
0C	-ſu	0G	-su	0c	Je-	0e	-su	0ryy
=42	=42	=42	=42	=42	=42	=42	=42	=42
0E	chri-	0G	Chr(i-	0B	-su	0e	chri-	0ryy
=43	=43	=43	=43	=43	=43	=43	=43	=43
*	*	*custos:F	*	*	*	*	*	*
0D	-ſte	0A	-st)e	0d	Chri-	0f	-ſte	0ryy
!	!	!LO:LB:g=original	!	!	!	!	!	!
=44	=44	=44	=44	=44	=44	=44	=44	=44
0D	al-	0F	al-	0A	-ste	0d	al-	0ryy
=45	=45	=45	=45	=45	=45	=45	=45	=45
1C	-tiſ-	1G	-tiſ-	1c	.	1e	-tiſ-	0ryy
1E	-si-	1G	-ſi-	1B	.	1g	-si-	.
=46	=46	=46	=46	=46	=46	=46	=46	=46
2D/	-me	2A/	-me	2d\	Do-	2f\	-me	0ryy
2.D/	Do-	2.A/	Do-	2.d\	-mi-	2.f\	Do-	.
4D/	-mi-	4A/	-mi-	4d\	-ne	4f\	-mi-	.
2D/	-ne	2A/	-ne	2d\	.	2f\	-ne	.
=47	=47	=47	=47	=47	=47	=47	=47	=47
2E/	De-	1G	De-	2B\	De-	1e	De-	0ryy
2C/	-us	.	.	2c\	-us	.	.	.
*	*	*	*	*	*	*custos:c	*	*
4D/	a-	2F/	-us	1A	A-	1d	-us	.
4E\	.	.	.	.	.	.	.	.
4F\	-gnus	2D/	a-	.	.	.	.	.
*custos:A	*	*	*	*	*	*	*	*
4G\	.	.	.	.	.	.	.	.
!LO:LB:g=original	!	!	!	!	!	!LO:LB:g=original	!	!
=48	=48	=48	=48	=48	=48	=48	=48	=48
2A\	De-	1F	-gnus	2A/	-gnus	2c\	a-	0ryy
2F\	-i	.	.	1d	De-	2d\	-gnus	.
1E	.	1G	De-	.	.	1e	de-	.
.	.	.	.	2c\	-i	.	.	.
=49	=49	=49	=49	=49	=49	=49	=49	=49
2D\	fi-	1A	-i	2d\	fi-	1f	-i	0ryy
2F\	-li-	.	.	2c\	-li-	.	.	.
2E\	-us	2r	.	2c\	-us	2r	.	.
*	*	*	*	*custos:A	*	*	*	*
4D\	Pa-	2A\	fi-	2d\	.	2f\	fi-	.
4E\	.	.	.	.	.	.	.	.
!	!	!	!	!LO:LB:g=original	!	!	!	!
=50	=50	=50	=50	=50	=50	=50	=50	=50
4F\	.	2d\	-li-	4A/	Pa-	2f\	-li-	0ryy
4G\	.	.	.	4B/	.	.	.	.
1A	.	2c\	-us	4c\	.	2e\	-us	.
.	.	.	.	4A/	-tris	.	.	.
.	.	1B	pa-	1B	.	1d	Pa-	.
2G\	-tris	.	.	.	.	.	.	.
=51	=51	=51	=51	=51	=51	=51	=51	=51
1A	.	2A/	-tris	2r	.	2c/	-tris	0ryy
.	.	1A	qui	1e	Qui	2c/	q(ui)	.
2r	.	.	.	.	.	1B	tol-	.
*	*	*custos:A	*	*	*	*	*	*
2E\	Qui	2G/	tol-	2e\	tol-	.	.	.
!	!	!LO:LB:g=original	!	!	!	!	!	!
=52	=52	=52	=52	=52	=52	=52	=52	=52
2F\	.	1A	-lis	2c\	-l(i)s	2A/	-lis	0ryy
2.D\	tol-	.	.	2d\	p(e)c-	2.f\	pec-	.
.	.	2r	.	2d\	-(ca)-	.	.	.
4E\	-lis	.	.	.	.	4e\	-ca-	.
*	*	*	*ij	*	*	*	*	*
4F\	.	2D/	qui	1A	-ta	2d\	-ta	.
4G\	.	.	.	.	.	.	.	.
=53	=53	=53	=53	=53	=53	=53	=53	=53
2A\	pec-	1F	tol-	.	.	2c/	.	0ryy
2D/	-ca-	.	.	2c\	m(un)-	2f\	mun-	.
1E	-ta	1G	-lis	1B	-di	2.e\	-di	.
*	*	*	*Xij	*	*	*	*ij	*
.	.	.	.	.	.	4d\	pec-	.
=54	=54	=54	=54	=54	=54	=54	=54	=54
2C/	m(un)-	2.A\	.	1r	.	2e\	-ca-	0ryy
*custos:AA	*	*	*	*	*	*custos:e	*	*
2D/	-di	.	.	.	.	2f\	.	.
.	.	4B\	pec-	.	.	.	.	.
!LO:LB:g=original	!	!	!	!	!	!	!	!
*	*ij	*	*	*	*	*	*	*
2AA/	pec-	2c\	-ca-	2r	.	2e\	-ta	.
2BB/	-ca-	1B	-ta	2d\	pec-	2d\	.	.
=55	=55	=55	=55	=55	=55	=55	=55	=55
2C/	-ta	.	.	2c\	-(ca)-	2e\	mun-	0ryy
2D/	m(un)-	1A	mu(n)-	2A/	-ta	2f\	.	.
*	*	*	*	*custos:c	*	*	*	*
1BB	-di	.	.	1B	mu(n)	1d	-di	.
.	.	2G/	.	.	.	.	.	.
*	*Xij	*	*	*	*	*	*Xij	*
!	!	!	!	!LO:LB:g=original	!	!	!	!
=56	=56	=56	=56	=56	=56	=56	=56	=56
2AA/	pec-	1A	-di	2c\	di	2r	.	0ryy
1D	-ca-	.	.	1d	.	1f	mi-	.
.	.	2r	.	.	.	.	.	.
*	*	*	*	*	*ij	*	*	*
2D/	-ta	2d\	mi-	4D/	mun-	2f\	-ſe-	.
.	.	.	.	4E/	.	.	.	.
=57	=57	=57	=57	=57	=57	=57	=57	=57
2D/	m(un)-	2A\	-ſe-	4F/	-di	2f\	-re-	0ryy
.	.	.	.	4G/	.	.	.	.
2AA/	-di	2c\	-re-	1A	mun-	2e\	-re	.
1.E	mi-	2B\	-re	.	.	1e	no-	.
.	.	2B\	no-	2G/	.	.	.	.
=58	=58	=58	=58	=58	=58	=58	=58	=58
.	.	1A	-bis	2A/	-di	2c/	-bis	0ryy
*	*	*	*	*	*Xij	*	*ij	*
2D/	-ſe-	.	.	2d\	mi-	2f\	mi-	.
2AA/	-re-	2r	.	2c\	-ſe-	2e\	-ſe-	.
2D/	-re	2A/	.	2d\	-re-	2f\	-re-	.
=59	=59	=59	=59	=59	=59	=59	=59	=59
2C/	no-	2E/	.	2G/	-re	2e\	-re	0ryy
*	*	*custos:F	*	*	*	*	*	*
2C/	-bis	2G/	.	2c\	.	2e\	no-	.
!	!	!LO:LB:g=original	!	!	!	!	!	!
1D	.	2F/	.	2A/	.	1d	-bis	.
.	.	2F/	.	2A/	.	.	.	.
=60	=60	=60	=60	=60	=60	=60	=60	=60
2r	.	1E	.	2G/	.	2r	.	0ryy
*custos:D	*	*	*	*	*	*custos:A	*	*
*	*ij	*	*	*	*	*	*	*
2AA/	mi-	.	.	2A/	.	2c/	mi-	.
!LO:LB:g=original	!	!	!	!	!	!LO:LB:g=original	!	!
2D/	-ſe-	2r	.	2F/	.	2A/	-ſe-	.
*	*	*	*ij	*	*	*	*	*
1D	-re-	2D/	mi-	1A	no-	2.f\	-re-	.
=61	=61	=61	=61	=61	=61	=61	=61	=61
.	.	2F/	-se-	.	.	.	.	0ryy
.	.	.	.	.	.	4e\	-re	.
*	*	*	*	*custos:A	*	*	*	*
2GG/	-re	2G/	-re-	2B/	.	1d	no-	.
!	!	!	!	!LO:LB:g=original	!	!	!	!
1AA	no-	2E/	-re	1A	-bis	.	.	.
.	.	2E/	no-	.	.	2c\	.	.
=62	=62	=62	=62	=62	=62	=62	=62	=62
1D	-bis	1D	-bis	1F	.	1d	-bis	0ryy
2r	.	2r	.	2r	.	2r	.	.
*	*Xij	*	*Xij	*	*	*	*Xij	*
1D	Qui	1F	Qui	1A	Qui	1d	Qui	.
.	.	.	.	.	.	.	.	0ryy
2D/	tol-	2F/	tol-	2A/	tol-	2d\	tol-	.
2D/	-lis	2F/	-lis	2A/	-l(i)s	2d\	-lis	.
2D/	p(e)c-	2F/	p(e)c-	2A/	pe(c-	2d\	pec-	.
=64	=64	=64	=64	=64	=64	=64	=64	=64
2C/	-(ca)-	2G/	-(ca)-	2c\	-ca)-	2e\	-ca-	0ryy
2C/	-ta	2G/	-ta	2c\	-ta	2e\	-ta	.
1AA	mun-	1A	mu(n)-	1c	m(un)-	1e	mu(n)-	.
=65	=65	=65	=65	=65	=65	=65	=65	=65
1D	-di	1F	-di	1A	-di	1d	-di	0ryy
0C	su-	0G	su-	0c	su-	0e	ſu-	.
=66	=66	=66	=66	=66	=66	=66	=66	=66
.	.	.	.	.	.	.	.	0ryy
*	*	*custos:F	*	*	*	*	*	*
1C	-ſci-	1G	-ſci-	1c	-ſci-	1e	-ſci-	.
!	!	!LO:LB:g=original	!	!	!	!	!	!
=67	=67	=67	=67	=67	=67	=67	=67	=67
2FF/	-pe	2F/	-pe	2c\	-pe	2f\	-pe	0ryy
1FF	de-	1F	de-	1A	de-	1c	de-	.
*	*	*	*	*	*	*custos:e	*	*
2FF/	-pre-	2A/	-pre-	2c\	-pre-	2f\	-pre-	.
!	!	!	!	!	!	!LO:LB:g=original	!	!
=68	=68	=68	=68	=68	=68	=68	=68	=68
2C/	-ca-	2G/	-ca-	2c\	-ca-	2e\	-ca-	0ryy
*custos:AA	*	*	*	*	*	*	*	*
2D/	-tio-	2F/	-ti-	2B\	-ti-	1d	-ti-	.
*	*	*	*	*custos:A	*	*	*	*
!LO:LB:g=original	!	!	!	!	!	!	!	!
1AA	.	1E	-o-	1A	-o-	.	.	.
.	.	.	.	.	.	2c/	-o-	.
!	!	!	!	!LO:LB:g=original	!	!	!	!
=69	=69	=69	=69	=69	=69	=69	=69	=69
2D/	-nem	2D/	-nem	1A	-nem	2d\	-nem	0ryy
2.D/	n(ost)-	1F	n(ost)	.	.	2.f\	.	.
.	.	.	.	1D	.	.	.	.
4C/	-ram	.	.	.	.	4e\	noſ-	.
2BB/	.	2G/	ram	.	.	2d\	-tram	.
=70	=70	=70	=70	=70	=70	=70	=70	=70
2AA/	.	0A	.	2E/	n(ost)-	2c/	.	0ryy
2AA/	Qui	.	.	2E/	-ram	2c/	q(ui)	.
1D	ſe-	.	.	2F/	q(ui)	1f	ſe-	.
.	.	.	.	2D/	ſe-	.	.	.
=71	=71	=71	=71	=71	=71	=71	=71	=71
2C/	-des	2r	.	2E/	-des	1e	-des	0ryy
2AA/	ad	2A\	Qui	1A	.	.	.	.
1BB	dex-	1d	ſe-	.	.	1r	.	.
.	.	.	.	2G/	ad	.	.	.
=72	=72	=72	=72	=72	=72	=72	=72	=72
2AA/	-te-	2c\	-des	1A	dex-	2r	.	0ryy
1AA	-ra(m)	2A\	ad	.	.	2c/	ad	.
.	.	1B	dex-	2.D/	.	1d	dex-	.
2GG/	.	.	.	.	.	.	.	.
.	.	.	.	4E/	-te-	.	.	.
=73	=73	=73	=73	=73	=73	=73	=73	=73
1AA	Pa-	2A/	-te-	2F/	-ra(m)	2c/	-t(e)-	0ryy
.	.	1A	-ra(m)	2E/	p(at)-	2c/	-ra(m)	.
1BB	-tris	.	.	1D	-ris	1d	Pat-	.
*	*	*custos:A	*	*	*	*	*	*
.	.	2G/	pa-	.	.	.	.	.
!	!	!LO:LB:g=original	!	!	!	!	!	!
=74	=74	=74	=74	=74	=74	=74	=74	=74
2AA/	mi-	2A/	-tris	2r	.	2c/	-ris	0ryy
*	*	*	*	*	*	*custos:B	*	*
2AA/	-ſe-	1A	mi-	1E	mi-	2c/	mi-	.
*custos:AA	*	*	*	*	*	*	*	*
!	!	!	!	!	!	!LO:LB:g=original	!	!
1E	-re-	.	.	.	.	2B/	-ſe-	.
*	*	*	*	*custos:c	*	*	*	*
.	.	2G/	-ſe-	2B\	-ſe-	2.e\	-re-	.
!LO:LB:g=original	!	!	!	!LO:LB:g=original	!	!	!	!
=75	=75	=75	=75	=75	=75	=75	=75	=75
2AA/	-re	2A/	-re-	2c\	-re-	.	.	0ryy
.	.	.	.	.	.	4d\	-re	.
2BB/	.	2D/	-re	2G/	-re	1d	no-	.
1AA	no-	1E	no-	1A	no-	.	.	.
.	.	.	.	.	.	2c/	-bis	.
=76	=76	=76	=76	=76	=76	=76	=76	=76
0Dl	-bis	0Dl	-bis	0Al	-bis	0dl	.	0ryy
=77||	=77||	=77||	=77||	=77||	=77||	=77||	=77||	=77||
1.D	Qvo-	1.A	Quo-	1.d	Qvo-	1.f	Quo-	0ryy
2D\	-ni-	2A\	-ni-	2d\	-ni-	2f\	-ni-	.
=78	=78	=78	=78	=78	=78	=78	=78	=78
2G\	-am	2B\	-am	2d\	-am	2g\	-am	0ryy
2E\	tu	2c\	tu	2e\	tu	2g\	tu	.
2D\	ſo-	2d\	ſo-	2A/	ſo-	2f\	ſo-	.
2D\	-lus	2d\	-l(us)	1A	-l(us)	2f\	-lus	.
=79	=79	=79	=79	=79	=79	=79	=79	=79
1E	s(an)c-	1B	s(an)c-	.	.	1e	s(an)c-	0ryy
.	.	.	.	2G/	ſ(an)-	.	.	.
1F	-tus	1A	-tus	1A	-ctus	1c	-ctus	.
=80	=80	=80	=80	=80	=80	=80	=80	=80
2r	.	2r	.	2r	.	2r	.	0ryy
*	*	*custos:B	*	*	*	*custos:g	*	*
2D/	tu	2A/	tu	2d\	Tu	2f\	tu	.
!	!	!LO:LB:g=original	!	!	!	!LO:LB:g=original	!	!
2G\	ſo-	2B\	ſo-	2d\	ſo-	2g\	ſo-	.
*custos:G	*	*	*	*	*	*	*	*
2D/	-lus	2A\	-lus	2d\	-l(us)	2f\	-lus	.
!LO:LB:g=original	!	!	!	!	!	!	!	!
=81	=81	=81	=81	=81	=81	=81	=81	=81
2G\	Do-	2B\	Do-	2d\	Do-	2g\	do-	0ryy
*	*	*	*	*custos:A	*	*	*	*
2E\	-mi-	2c\	-mi-	2e\	-mi-	2g\	-mi-	.
2D/	-nus	2d\	-nus	2A/	-n(us)	2f\	-nus	.
1D	tu	1A	tu	1d	Tu	1f	tu	.
=82	=82	=82	=82	=82	=82	=82	=82	=82
.	.	.	.	.	.	.	.	0ryy
2D/	ſo-	2A/	so-	2d\	ſo-	2f\	ſo-	.
2D/	-lus	2A/	-lus	2d\	-l(us)	2f\	-lus	.
2D/	al-	2A/	al-	2d\	Al-	2f\	al-	.
=83	=83	=83	=83	=83	=83	=83	=83	=83
1G	-tiſ-	1B	-tiſ-	1d	-tiſ-	1g	-tiſ-	0ryy
1E	-si-	1c	-ſi-	1e	-si-	1g	-si-	.
=84	=84	=84	=84	=84	=84	=84	=84	=84
1D	-mus	1d	-m(us)	1A	-m(us)	1f	-m(us)	0ryy
0D	Ie-	0A	Je-	0d	Je-	0f	Je-	.
=85	=85	=85	=85	=85	=85	=85	=85	=85
.	.	.	.	.	.	.	.	0ryy
1D	-ſu	1F	-su	1A	-ſu	1f	-ſu	.
=86	=86	=86	=86	=86	=86	=86	=86	=86
0C	Chri-	0G	Chri-	0c	Chri-	0e	Chri-	0ryy
=87	=87	=87	=87	=87	=87	=87	=87	=87
*M3/1	*	*M3/1	*	*M3/1	*	*M3/1	*	*yyM3/1
*met(3)	*	*met(3)	*	*met(3)	*	*met(3)	*	*yymet(3)
0D	-ſte	0F	-ste	0A	-ſt(ae)	0d	-ſte	0.ryy
1D	cum	1D	cum	1A	cum	1d	Cvm	.
=88	=88	=88	=88	=88	=88	=88	=88	=88
0D	ſ(an)-	0F	sa(n)-	0A	ſ(an)-	0d	ſ(an)-	0.ryy
*custos:F	*	*custos:A	*	*	*	*custos:f	*	*
1C	-cto	1G	-cto	1c	-cto	1e	-cto	.
=89	=89	=89	=89	=89	=89	=89	=89	=89
*lig	*	*	*	*lig	*	*	*	*
1F	Spi-	0A	spi-	1c	ſp(i-	0f	Spi-	0.ryy
1D	-­-	.	.	1d	.	.	.	.
*Xlig	*	*	*	*Xlig	*	*	*	*
1E	-ri-	1G	-ri-	1B	-ri-	1e	-ri-	.
=90	=90	=90	=90	=90	=90	=90	=90	=90
0AA	-tu	0A	-tu	0c	-t)u	0e	-tu	0.ryy
1D	in	1A	in	1d	in	1f	in	.
=91	=91	=91	=91	=91	=91	=91	=91	=91
1.D	glo-	1.d	glo-	1.A	glo-	1.f	glo-	0.ryy
2D/	-ri-	2d\	-ri-	2A/	-ri-	2f\	-ri-	.
1D	-a	1d	-a	1A	-a	1f	-a	.
=92	=92	=92	=92	=92	=92	=92	=92	=92
2AA/	De-	0c	De-	0A	De-	2e\	De-	0.ryy
2BB/	.	.	.	.	.	2d\	-i	.
2C/	-i	.	.	.	.	2e\	.	.
2D/	.	.	.	.	.	2f\	.	.
1E	.	1B	-i	1G	-i	1g	Pat-	.
=93	=93	=93	=93	=93	=93	=93	=93	=93
1F	Pat-	1.A	pa-	0c	Pa-	1f	-ris	0.ryy
1C	-ris	.	.	.	.	1.e	.	.
.	.	2G/	-tris	.	.	.	.	.
1D	.	1F	.	1A	-tris	.	.	.
.	.	.	.	.	.	2d\	.	.
=94	=94	=94	=94	=94	=94	=94	=94	=94
1GG	a-	1G	a-	1B	A-	0d	A-	0.ryy
0AA	-men:	0E	-men.	0A	.	.	.	.
.	.	.	.	.	.	1c	-MEN.	.
=95	=95	=95	=95	=95	=95	=95	=95	=95
0.Dl	.	0.Dl	.	0.Al	-men.	0.dl	.	0.ryy
==	==	==	==	==	==	==	==	==
*-	*-	*-	*-	*-	*-	*-	*-	*-
!!!system-decoration: s1[(s2,s3,s4,s5)]
!!!RDF**kern: l = terminal long
!!!ENC: Mateusz Solarz
!!!END: 2022-02-14
!!!AIN: 1 alto 1 bass 1 soprn 1 tenor 1 vox
!!!ENC: Natalia Wrzos
!!!END: 2022-02-23
